Dominus_Dark_Funeral/22/apps/chess.svg

<svg xmlns="http://www.w3.org/2000/svg" width="24" height="24"><path d="M12 .55a3.13 3.13 0 0 0-1.3 5.97h-.9a.56.56 0 0 0-.55.55v.35c0 .17.09.33.22.43h-.52a.5.5 0 0 0-.5.48v.48c0 .27.22.5.5.5h1.28c.07.48.2 2.92-.99 5.8h.43-.43a13.1 13.1 0 0 1-2.37 3.85c-.17.2-.26.4-.26.63v.7h-.33a.33.33 0 0 0-.33.31v.71c0 .07.03.13.06.18h-.36c-.23 0-.4.28-.4.62v.7c0 .35.17.64.39.64H12v-.01h6.36c.22 0 .4-.28.4-.63v-.7c0-.35-.18-.63-.4-.63h-.37a.33.33 0 0 0 .05-.18v-.7a.33.33 0 0 0-.32-.32h-.33v-.7c0-.2-.1-.42-.26-.61a13.13 13.13 0 0 1-2.38-3.85 12.6 12.6 0 0 1-.98-5.82h1.28a.5.5 0 0 0 .5-.5v-.47a.49.49 0 0 0-.5-.48h-.51c.12-.1.22-.26.22-.43v-.35a.56.56 0 0 0-.56-.55h-.9A3.13 3.13 0 0 0 12 .55z" fill="#e6e6e6"/></svg>

<?xml version="1.0" encoding="UTF-8" standalone="no"?>
<svg
   xmlns:dc="http://purl.org/dc/elements/1.1/"
   xmlns:cc="http://creativecommons.org/ns#"
   xmlns:rdf="http://www.w3.org/1999/02/22-rdf-syntax-ns#"
   xmlns:svg="http://www.w3.org/2000/svg"
   xmlns="http://www.w3.org/2000/svg"
   xmlns:sodipodi="http://sodipodi.sourceforge.net/DTD/sodipodi-0.dtd"
   xmlns:inkscape="http://www.inkscape.org/namespaces/inkscape"
   width="24"
   height="24"
   version="1.1"
   id="svg4"
   sodipodi:docname="chess.svg"
   inkscape:version="0.92.4 (5da689c313, 2019-01-14)">
  <metadata
     id="metadata10">
    <rdf:RDF>
      <cc:Work
         rdf:about="">
        <dc:format>image/svg+xml</dc:format>
        <dc:type
           rdf:resource="http://purl.org/dc/dcmitype/StillImage" />
        <dc:title></dc:title>
      </cc:Work>
    </rdf:RDF>
  </metadata>
  <defs
     id="defs8" />
  <sodipodi:namedview
     pagecolor="#ffffff"
     bordercolor="#666666"
     borderopacity="1"
     objecttolerance="10"
     gridtolerance="10"
     guidetolerance="10"
     inkscape:pageopacity="0"
     inkscape:pageshadow="2"
     inkscape:window-width="1142"
     inkscape:window-height="480"
     id="namedview6"
     showgrid="false"
     inkscape:zoom="9.8333333"
     inkscape:cx="1.2711864"
     inkscape:cy="12"
     inkscape:window-x="0"
     inkscape:window-y="25"
     inkscape:window-maximized="0"
     inkscape:current-layer="svg4" />
  <path
     d="M 12,0.55 A 3.13,3.13 0 0 0 10.7,6.52 H 9.8 A 0.56,0.56 0 0 0 9.25,7.07 v 0.35 c 0,0.17 0.09,0.33 0.22,0.43 H 8.95 a 0.5,0.5 0 0 0 -0.5,0.48 v 0.48 c 0,0.27 0.22,0.5 0.5,0.5 h 1.28 c 0.07,0.48 0.2,2.92 -0.99,5.8 H 9.67 9.24 a 13.1,13.1 0 0 1 -2.37,3.85 c -0.17,0.2 -0.26,0.4 -0.26,0.63 v 0.7 H 6.28 A 0.33,0.33 0 0 0 5.95,20.6 v 0.71 c 0,0.07 0.03,0.13 0.06,0.18 H 5.65 c -0.23,0 -0.4,0.28 -0.4,0.62 v 0.7 c 0,0.35 0.17,0.64 0.39,0.64 H 12 v -0.01 h 6.36 c 0.22,0 0.4,-0.28 0.4,-0.63 v -0.7 c 0,-0.35 -0.18,-0.63 -0.4,-0.63 h -0.37 a 0.33,0.33 0 0 0 0.05,-0.18 v -0.7 a 0.33,0.33 0 0 0 -0.32,-0.32 h -0.33 v -0.7 c 0,-0.2 -0.1,-0.42 -0.26,-0.61 A 13.13,13.13 0 0 1 14.75,15.12 12.6,12.6 0 0 1 13.77,9.3 h 1.28 a 0.5,0.5 0 0 0 0.5,-0.5 V 8.33 a 0.49,0.49 0 0 0 -0.5,-0.48 h -0.51 c 0.12,-0.1 0.22,-0.26 0.22,-0.43 V 7.07 A 0.56,0.56 0 0 0 14.2,6.52 H 13.3 A 3.13,3.13 0 0 0 12,0.55 Z"
     id="path2"
     inkscape:connector-curvature="0"
     style="fill:#e6e6e6" />
</svg>
